X: 16410
T: Gypsy Princess
R: barndance
M: 4/4
K: Gmajor
|B3 BB2B2|ABAG E2 DE|G2B2d2Bd|e2dB A2 GA|
B3 BB2B2|ABAG E2 DE|G2B2dedB|1 A2G2G2A2:|2 A2G2GABc||
|:d3d d2 d2|B3 A GABd|e3 e e2 e2|B3A GABc|
d3d d2 d2|B3 A GABd|g2e2 dBGB|1 A2 G2 GABc:|2 A2 G2 G4||

